Catalina-dark/actions/22/chronometer-start.svg

<svg xmlns="http://www.w3.org/2000/svg" viewBox="0 0 22 22">
  <defs id="defs3051">
    <style type="text/css" id="current-color-scheme">
      .ColorScheme-Text {
        color:#f2f2f2
      }
      </style>
  </defs>
 <path 
     style="fill:currentColor;fill-opacity:1;stroke:none"      
	 class="ColorScheme-Text"
        d="M 9.3691406 3 C 9.1158928 3 8.9082031 3.2035431 8.9082031 3.4609375 L 8.9082031 3.8417969 C 8.9082031 4.0988245 9.1158928 4.3066406 9.3691406 4.3066406 L 9.5292969 4.3066406 L 9.5292969 4.5742188 C 9.5295507 4.9603244 9.774148 4.9925834 9.8964844 4.984375 C 9.9172734 4.9813004 9.938174 4.977543 9.9609375 4.9746094 C 9.9611914 4.9746094 9.9648438 4.9746094 9.9648438 4.9746094 C 10.399156 4.9151478 11.118259 4.8579019 11.943359 4.9628906 C 11.943359 4.9628906 12.472142 5.0602921 12.470703 4.5742188 L 12.470703 4.3046875 L 12.632812 4.3046875 C 12.886314 4.3046875 13.091797 4.0991912 13.091797 3.8417969 L 13.091797 3.4609375 C 13.091769 3.2037688 12.884361 3 12.630859 3 L 9.3691406 3 z M 14.609375 4.7011719 C 14.566707 4.7097822 14.533989 4.7367691 14.511719 4.7617188 L 14.474609 4.8144531 L 14.160156 5.265625 C 14.158661 5.2673457 13.981314 5.5460593 14.263672 5.6933594 C 14.6669 5.8917998 15.406349 6.3108689 16.115234 6.9863281 L 16.115234 6.984375 C 16.115234 6.984375 16.36971 7.2411838 16.548828 6.9863281 L 16.890625 6.4960938 C 17.009802 6.3239428 16.855781 6.2051219 16.839844 6.1933594 L 14.769531 4.7460938 L 14.767578 4.7460938 C 14.703829 4.7017373 14.652043 4.6925615 14.609375 4.7011719 z M 11 5.5625 C 7.2895723 5.5625 4.28125 8.5704838 4.28125 12.28125 C 4.28125 15.991085 7.2895441 19 11 19 C 14.710399 19 17.71875 15.991057 17.71875 12.28125 C 17.71875 8.5704838 14.710399 5.5625 11 5.5625 z M 8.8007812 9.4003906 L 13.800781 12.400391 L 8.8007812 15.400391 L 8.8007812 9.4003906 z "
     />
</svg>

<svg width="22" height="22" viewBox="4.281 3 13.44 16" xmlns="http://www.w3.org/2000/svg">
<defs>
<style id="current-color-scheme" type="text/css">.ColorScheme-Text {
        color:#f2f2f2
      }</style>
</defs>
<path class="ColorScheme-Text" d="m9.3691 3c-0.25325 0-0.46094 0.20354-0.46094 0.46094v0.38086c0 0.25703 0.20769 0.46484 0.46094 0.46484h0.16016v0.26758c2.538e-4 0.38611 0.24485 0.41836 0.36719 0.41016 0.020789-0.0030746 0.04169-0.006832 0.064453-0.0097656h0.0039063c0.43431-0.059462 1.1534-0.11671 1.9785-0.011719 0 0 0.52878 0.097402 0.52734-0.38867v-0.26953h0.16211c0.2535 0 0.45898-0.2055 0.45898-0.46289v-0.38086c-2.8e-5 -0.25717-0.20744-0.46094-0.46094-0.46094h-3.2617zm5.2402 1.7012c-0.042668 0.0086103-0.075386 0.035597-0.097656 0.060547l-0.03711 0.052734-0.31445 0.45117c-0.001495 0.0017207-0.17884 0.28043 0.10352 0.42773 0.40323 0.19844 1.1427 0.61751 1.8516 1.293v-0.0019531s0.25448 0.25681 0.43359 0.0019531l0.3418-0.49023c0.11918-0.17215-0.034844-0.29097-0.050781-0.30273l-2.0703-1.4473h-0.001953c-0.063749-0.044356-0.11554-0.053532-0.1582-0.044922zm-3.6094 0.86133c-3.7104 0-6.7188 3.008-6.7188 6.7188 0 3.7098 3.0083 6.7188 6.7188 6.7188 3.7104 0 6.7188-3.0089 6.7188-6.7188 0-3.7108-3.0084-6.7188-6.7188-6.7188zm-2.1992 3.8379 5 3-5 3v-6z" fill="currentColor"/>
</svg>
